X: 4382
M: C
L: 1/8
K: D
d3D DDFA | dcc2 zAAA | e3d cBAG | FAd2 zddd |\
e3d cBAG | FAd2 zdcd | e3e gfed | ceA2 zdcd |\


